X:1
T:The Lord Bless You and Keep You
T:The Lord Bless You and Keep You
T:Peter Christian Lutkin (1858-1931)
T:Public Domain Courtesy of the Cyber Hymnal™
C:Peter Christian Lutkin (1858-1931)
Z:Public Domain
Z:Courtesy of the Cyber Hymnal™
%%score ( 1 2 ) ( 3 4 )
L:1/8
Q:1/4=108
M:4/4
K:C
V:1 treble 
V:2 treble 
V:3 bass 
V:4 bass 
V:1
 [CG]2 | [CG]4 [CE]2 CC | ([CD]2 [B,F]2) [CE]3 [EG] | [EG]2 [CE][EG] [Ec]>[EB] [EA]E | %4
w: The|Lord bless you and|keep * you The|Lord lift His coun- te- nance up-|
 (G2 ^F2) [DG]2 z2 | z [^CE][CF][CE] [DA]2 z2 | z [DG][DA][DG] [Cc]G (G[FG]) | %7
w: on * you,|And give you peace,|and give you peace; The Lord *|
 ([EG][CE]) (Gc) [Ee]>[Ec] [EG][CE] | ([EG]2 [DF]2) ([CE]2 EA | z2) [EA] [EG]EG x2 | %10
w: make * His * face to shine up-|on * you, * *|And be~gra- * *|
 z2 F[Gc] [Ac]2 [FA]2 | z3 [CA] [CG]3 C | [CA][B,G] z2 [^CG]2 [DF]2 | [CE]4 [B,D]4 x2 | C6 |] %15
w: cious, and * be|gra- cious; The|Lord be gra- cious,|gra- cious|un-|
V:2
 x2 | x6 CC | x8 | x8 | D4 x4 | x8 | x8 | x2 E2 x4 | x8 | A4- CD x2 | c3 x5 | x8 | x8 | x10 | C6 |] %15
V:3
 [C,E,]2 | [C,E,]4 [C,G,]2 [C,E,][C,E,] | ([F,,A,]2 [G,,G,]2) [C,G,]3 [C,C] | %3
 [C,C]2 [C,G,][C,G,] [A,,A,]>[B,,_A,] [C,=A,][C,A,] | z2 A,2 B,2 G,G, | (z A,A,A,) A,2 x2 | %6
 (z B,CB, [E,C])[E,G,] (A,B,) | C2 C2 [C,C]>[G,C] [G,C][G,C] | ([G,D]2 [^G,B,]2) [A,C]2 z2 | %9
 z2 [F,A,][F,B,] [E,C][E,C] z2 | z2 [D,C][E,_B,] [F,A,]2 [F,C]2 | z3 [D,C] [E,_B,]3 [E,B,] | %12
 [F,_B,][E,B,] z2 [E,A,]2 [D,A,]2 | G,6 z2 F,2 | [C,E,]6 |] %15
V:4
 x2 | x8 | x8 | x8 | G,4 G,G, x2 | (G,4 F,F,F,F,) | (F,4 x D,2) x | (C,C) (G,E,) x4 | x8 | x8 | %10
 x8 | x8 | x8 | G,,4 G,,4 x2 | x6 |] %15

